X: 4
T:4.  Bustin' Up (aeae tuning)
C:c 2003 Harry Bolick  
R:Breakdown
O:United States
A:Hastings On Hudson, New York
M:2/4
L:1/8
Q:160
K:A
 |: "A"  (A,/2C/2)E (F/2E/2)C | (E/2F/2)A c2 |"E"  BB/2c/2  B/2A/2G/2E/2| "D" FF/2G/2 (F/2E/2)(C/2A,/2)|
"A" (A,/2C/2)E (F/2E/2)C |(E/2F/2)A c2 | "D" fe "E" c/2B/2A|"F#m"  F4:|
"D" f2 ff/2g/2| a>b a(g/2f/2)|"A"  e>(f e)(c/2B/2) | c e3|
"F#m" f(A/2B/2 c)f |e/2c/2(B/2A/2) F2 | CF (A/2F/2E)| F4:|
